src/components/Icon/icons/filled-edit.svg

<svg xmlns="http://www.w3.org/2000/svg" width="100%" height="100%" viewBox="0 0 17 17" fill="none">
  <g clip-path="url(#clip0_156_3837)">
    <path d="M14.3599 6.5001L12.9099 7.9601L9.48992 11.4001C9.34992 11.5401 9.15992 11.6201 8.95992 11.6201H6.13992C5.72992 11.6201 5.38992 11.2801 5.38992 10.8701V8.0501C5.38992 7.8501 5.46992 7.6601 5.60992 7.5201L9.04992 4.1001L10.5099 2.6501C10.4299 2.6201 10.3499 2.6001 10.2599 2.6001H3.29992C2.59992 2.6001 1.93992 2.8701 1.43992 3.3701C0.949922 3.8601 0.669922 4.5401 0.669922 5.2301V13.7001C0.669922 14.4001 0.939922 15.0601 1.43992 15.5601C1.93992 16.0601 2.59992 16.3301 3.29992 16.3301H11.7699C12.4699 16.3301 13.1299 16.0601 13.6299 15.5601C14.1299 15.0601 14.3999 14.4001 14.3999 13.7001V6.7601C14.3999 6.6701 14.3799 6.5901 14.3499 6.5101L14.3599 6.5001Z" fill="currentColor"/>
    <path d="M8.63988 10.1102H6.87988V8.3502L12.7299 2.5202L14.4699 4.2602L8.63988 10.1102ZM16.3099 2.4102L15.5299 3.2002L13.7899 1.4602L14.5799 0.670195C15.0399 0.210195 15.8499 0.210195 16.3099 0.670195C16.5399 0.900195 16.6699 1.2102 16.6699 1.5402C16.6699 1.8702 16.5399 2.1802 16.3099 2.4102Z" fill="currentColor"/>
  </g>
  <defs>
    <clipPath id="clip0_156_3837">
      <rect width="16" height="15.99" fill="white" transform="translate(0.669922 0.330078)"/>
    </clipPath>
  </defs>
</svg>

<svg xmlns="http://www.w3.org/2000/svg" fill="none" viewBox="0 0 17 17"><g fill="currentColor" clip-path="url(#a)"><path d="m14.36 6.5-1.45 1.46-3.42 3.44a.75.75 0 0 1-.53.22H6.14c-.41 0-.75-.34-.75-.75V8.05c0-.2.08-.39.22-.53L9.05 4.1l1.46-1.45a.7.7 0 0 0-.25-.05H3.3c-.7 0-1.36.27-1.86.77-.49.49-.77 1.17-.77 1.86v8.47c0 .7.27 1.36.77 1.86s1.16.77 1.86.77h8.47c.7 0 1.36-.27 1.86-.77s.77-1.16.77-1.86V6.76c0-.09-.02-.17-.05-.25z"/><path d="M8.64 10.11H6.88V8.35l5.85-5.83 1.74 1.74zm7.67-7.7-.78.79-1.74-1.74.79-.79c.46-.46 1.27-.46 1.73 0 .23.23.36.54.36.87s-.13.64-.36.87"/></g><defs><clipPath id="a"><path fill="#fff" d="M.67.33h16v15.99h-16z"/></clipPath></defs></svg>
